packs/brands/shopify.svg

<svg xmlns="http://www.w3.org/2000/svg" viewBox="0 0 448 512"><!--! Font Awesome Free 6.5.2 by @fontawesome - https://fontawesome.com License - https://fontawesome.com/license/free (Icons: CC BY 4.0, Fonts: SIL OFL 1.1, Code: MIT License) Copyright 2024 Fonticons, Inc.--><path d="M388.32 104.1a4.66 4.66 0 0 0-4.4-4c-2 0-37.23-.8-37.23-.8s-21.61-20.82-29.62-28.83V503.2L442.76 472s-54.04-365.5-54.44-367.9m-99.67-33.63a117 117 0 0 0-7.21-17.61C271 32.85 255.42 22 237 22a15 15 0 0 0-4 .4c-.4-.8-1.2-1.2-1.6-2-8-8.77-18.4-12.77-30.82-12.4-24 .8-48 18-67.25 48.83-13.61 21.62-24 48.84-26.82 70.06-27.62 8.4-46.83 14.41-47.23 14.81-14 4.4-14.41 4.8-16 18-1.2 10-38 291.82-38 291.82L307.86 504V65.67a42 42 0 0 0-4.4.4s-5.6 1.6-14.81 4.4m-55.24 17.22c-16 4.8-33.63 10.4-50.84 15.61 4.8-18.82 14.41-37.63 25.62-50 4.4-4.4 10.41-9.61 17.21-12.81 6.81 14.37 8.41 33.99 8.01 47.2m-32.83-63.25A27.5 27.5 0 0 1 215 28c-6.4 3.2-12.81 8.41-18.81 14.41-15.21 16.42-26.82 42-31.62 66.45-14.42 4.41-28.83 8.81-42 12.81 8.76-38.39 41.18-96.43 78.01-97.23m-46.43 220.17c1.6 25.61 69.25 31.22 73.25 91.66 2.8 47.64-25.22 80.06-65.65 82.47-48.83 3.2-75.65-25.62-75.65-25.62l10.4-44s26.82 20.42 48.44 18.82c14-.8 19.22-12.41 18.81-20.42-2-33.62-57.24-31.62-60.84-86.86-3.2-46.44 27.22-93.27 94.47-97.68 26-1.6 39.23 4.81 39.23 4.81l-15.21 57.6s-17.21-8-37.63-6.4c-29.62 2.01-30.02 20.81-29.62 25.62m95.27-161.73c0-12-1.6-29.22-7.21-43.63 18.42 3.6 27.22 24 31.23 36.43q-10.81 3-24.02 7.2"/></svg>

<svg xmlns="http://www.w3.org/2000/svg" viewBox="0 0 448 512"><!--! Font Awesome Free 6.5.2 by @fontawesome - https://fontawesome.com License - https://fontawesome.com/license/free (Icons: CC BY 4.0, Fonts: SIL OFL 1.1, Code: MIT License) Copyright 2024 Fonticons, Inc. --><path d="M388.32,104.1a4.66,4.66,0,0,0-4.4-4c-2,0-37.23-.8-37.23-.8s-21.61-20.82-29.62-28.83V503.2L442.76,472S388.72,106.5,388.32,104.1ZM288.65,70.47a116.67,116.67,0,0,0-7.21-17.61C271,32.85,255.42,22,237,22a15,15,0,0,0-4,.4c-.4-.8-1.2-1.2-1.6-2C223.4,11.63,213,7.63,200.58,8c-24,.8-48,18-67.25,48.83-13.61,21.62-24,48.84-26.82,70.06-27.62,8.4-46.83,14.41-47.23,14.81-14,4.4-14.41,4.8-16,18-1.2,10-38,291.82-38,291.82L307.86,504V65.67a41.66,41.66,0,0,0-4.4.4S297.86,67.67,288.65,70.47ZM233.41,87.69c-16,4.8-33.63,10.4-50.84,15.61,4.8-18.82,14.41-37.63,25.62-50,4.4-4.4,10.41-9.61,17.21-12.81C232.21,54.86,233.81,74.48,233.41,87.69ZM200.58,24.44A27.49,27.49,0,0,1,215,28c-6.4,3.2-12.81,8.41-18.81,14.41-15.21,16.42-26.82,42-31.62,66.45-14.42,4.41-28.83,8.81-42,12.81C131.33,83.28,163.75,25.24,200.58,24.44ZM154.15,244.61c1.6,25.61,69.25,31.22,73.25,91.66,2.8,47.64-25.22,80.06-65.65,82.47-48.83,3.2-75.65-25.62-75.65-25.62l10.4-44s26.82,20.42,48.44,18.82c14-.8,19.22-12.41,18.81-20.42-2-33.62-57.24-31.62-60.84-86.86-3.2-46.44,27.22-93.27,94.47-97.68,26-1.6,39.23,4.81,39.23,4.81L221.4,225.39s-17.21-8-37.63-6.4C154.15,221,153.75,239.8,154.15,244.61ZM249.42,82.88c0-12-1.6-29.22-7.21-43.63,18.42,3.6,27.22,24,31.23,36.43Q262.63,78.68,249.42,82.88Z"/></svg>
